X: 4017
T: GLEN LEAN
R: Strathspey.
%R: strathspey
B: James Kerr "Merry Melodies" v.4 p.04 #17
Z: 2016 John Chambers <jc:trillian.mit.edu>
M: C
L: 1/8
K: A
|:\
vc2 B>A (c<e) e2 | a>e f<e a>e f<a |\
c2 (B>A) (c<e) e>f | e<c c>A B2-Bd :|
|:\
c>ea>f e<c B<A | c>e a>f e3 d |\
c>ea>f e<c B<A |[1 B>AB>c B2-Bd :|[2 B>A B<c A2-Az |]

%%sep 1 1 500
%%sep 1 1 500

